Adwaita++/actions/22/edit-table-delete-column.svg

<svg height="22" viewBox="0 0 22 22" width="22" xmlns="http://www.w3.org/2000/svg">
  <path d="m1 1v14h14v-14zm2 2h2v2h-2zm3 0h1.28125l-1.28125 1.28125zm2.71875 0h1.28125v1.28125l-4 4v-2.5625zm2.28125 0h2v2h-2zm-1 2.71875v2.5625l-4 4v-2.5625zm-7 1.28125h2v2h-2zm8 0h2v2h-2zm-1 2.71875v3.28125h-3.28125zm-7 1.28125h2v2h-2zm8 0h2v2h-2z" fill="#444" transform="translate(3 3)"/>
</svg>

<svg xmlns="http://www.w3.org/2000/svg" width="22" height="22" viewBox="0 0 22 22">
 <defs>
  <style id="current-color-scheme" type="text/css">
   .ColorScheme-Text { color:#444444; } .ColorScheme-Highlight { color:#4285f4; }
  </style>
 </defs>
 <path style="fill:currentColor" class="ColorScheme-Text" d="M 1 1 L 1 15 L 15 15 L 15 1 L 1 1 z M 3 3 L 5 3 L 5 5 L 3 5 L 3 3 z M 6 3 L 7.28125 3 L 6 4.28125 L 6 3 z M 8.71875 3 L 10 3 L 10 4.28125 L 6 8.28125 L 6 5.71875 L 8.71875 3 z M 11 3 L 13 3 L 13 5 L 11 5 L 11 3 z M 10 5.71875 L 10 8.28125 L 6 12.28125 L 6 9.71875 L 10 5.71875 z M 3 7 L 5 7 L 5 9 L 3 9 L 3 7 z M 11 7 L 13 7 L 13 9 L 11 9 L 11 7 z M 10 9.71875 L 10 13 L 6.71875 13 L 10 9.71875 z M 3 11 L 5 11 L 5 13 L 3 13 L 3 11 z M 11 11 L 13 11 L 13 13 L 11 13 L 11 11 z" transform="translate(3 3)"/>
</svg>
